T: Daly's Mill
M: 2/4
L: 1/8
K: Gmaj
G>B de | dB B/^A/B/=A/ | GB de | d2 g2 |                  GB de | dB B/^A/B/=A/ | GE ED | G2 G :|ed B/c/B/A/ | GE ED | G>F GB | d2 dg/f/ |ed B/c/B/A/ | GE ED | G>F GA | G2- G :|
